X:11726
%14763
T:Sailors Journal,Comd by Dibdin,The. JC.165
M:3/4
L:1/8
Q:1/4=100
C:Song plus Flute tune
S:John Clare,Poet,Helpstone (1793-1864)
R:Song & Air
O:England
A:Northamptonshire
N:
Z:P Headford
K:Cmaj
"INTRO"GEC|"CNDANTINO"C2{DC}B, {E}CA,F,|E,>.F,.G,.A,.B,.C|DE{G}F3E|EDzcAF|EGECB,G,
|!
F,2{G,A,}G, CEG|{G}F>E{G}F3D|E"SONG"Cz"Two's past the Me--ri---dian"G E C|(C

%Error : Unrecognized character: 2
{DC}B,) " half past abour"C A, F,
%Error : Bar 9 is 5/8 not 3/4
|!
(E,>F,G,)"dy signal I abrom Nancy parted" A, B, C|D E{G}F3E|
%Error : Guitar chord name not properly closed
E Dz"ct six she li"

%Error : Unrecognized character: n

%Error : Unrecognized character: r

%Error : Unrecognized character: o

%Error : Unrecognized character: n

%Error : Unrecognized character: t

%Error : Unrecognized character: h

%Error : Guitar chord name not properly closed
--BGGF"g eb C|(C2{BA}G) C " G"Ab F|!"
"shore,  with uplift"(E,>F,G,) C E G
%Error : Bar 12 is 7/4 not 3/4
|"hands & droken hearted"F3/2 E/2 {G}F3/2

%Error : Unrecognized character: 2
 D
%Error : Bar 13 is 9/16 not 3/4
|E Cz"ct seven while"C E D/2C/2|"taughtening the aborestay I saw her"DB,
G,E D B,|!
G,3A, G, E,|
%Error : Guitar chord name not properly closed
"abaint or glse was abanc"
